docs/img/typetester_base/format_align_right.svg

<!-- Generated by IcoMoon.io -->
<svg version="1.1" xmlns="http://www.w3.org/2000/svg" width="768" height="768" viewBox="0 0 768 768">
<title>Text align right</title>

<path d="M96 96h576v64.5h-576v-64.5zM288 288v-64.5h384v64.5h-384zM96 415.5v-63h576v63h-576zM288 544.5v-64.5h384v64.5h-384zM96 672v-64.5h576v64.5h-576z"></path>
</svg>

<svg xmlns="http://www.w3.org/2000/svg" width="768" height="768" viewBox="0 0 768 768"><title>Text align right</title><path d="M96 96h576v64.5H96V96zm192 192v-64.5h384V288H288zM96 415.5v-63h576v63H96zm192 129V480h384v64.5H288zM96 672v-64.5h576V672H96z"/></svg>
